theme/icons/organisation.svg

<svg fill="none" height="24" width="24" xmlns="http://www.w3.org/2000/svg"><g fill="#f4f4f7"><path d="m17 15h2v2h-2zm2-4h-2v2h2z"/><path clip-rule="evenodd" d="m13 7h10v14h-22v-18h12zm-5-2h3v2h-3zm3 14v-2h-3v2zm0-4v-2h-3v2zm0-4v-2h-3v2zm10 8v-10h-8v2h2v2h-2v2h2v2h-2v2zm-18 0v-2h3v2zm0-4h3v-2h-3zm3-4v-2h-3v2zm-3-4h3v-2h-3z" fill-rule="evenodd"/></g></svg>

<svg fill="none" height="24" width="24" xmlns="http://www.w3.org/2000/svg">
    <g fill="#f4f4f7">
        <path d="M17 15h2v2h-2zm2-4h-2v2h2z"/>
        <path clip-rule="evenodd" d="M13 7h10v14H1V3h12zM8 5h3v2H8zm3 14v-2H8v2zm0-4v-2H8v2zm0-4V9H8v2zm10 8V9h-8v2h2v2h-2v2h2v2h-2v2zM3 19v-2h3v2zm0-4h3v-2H3zm3-4V9H3v2zM3 7h3V5H3z" fill-rule="evenodd"/>
    </g>
</svg>
